app/assets/img/shared/nav-menu02.svg

<svg width="129" height="24" viewBox="0 0 129 24" fill="none" xmlns="http://www.w3.org/2000/svg">
<path d="M11.54 23C11.1 23 10.765 22.94 10.535 22.82C10.315 22.7 10.13 22.45 9.98 22.07L9.65 21.215C9.26 21.545 8.885 21.835 8.525 22.085C8.165 22.335 7.79 22.55 7.4 22.73C7.02 22.9 6.61 23.025 6.17 23.105C5.74 23.195 5.26 23.24 4.73 23.24C4.02 23.24 3.375 23.15 2.795 22.97C2.215 22.78 1.72 22.505 1.31 22.145C0.91 21.785 0.6 21.34 0.38 20.81C0.16 20.27 0.05 19.65 0.05 18.95C0.05 18.4 0.19 17.835 0.47 17.255C0.75 16.675 1.235 16.15 1.925 15.68C2.615 15.2 3.545 14.8 4.715 14.48C5.885 14.16 7.36 13.98 9.14 13.94V13.28C9.14 12.37 8.95 11.715 8.57 11.315C8.2 10.905 7.67 10.7 6.98 10.7C6.43 10.7 5.98 10.76 5.63 10.88C5.28 11 4.965 11.135 4.685 11.285C4.415 11.435 4.15 11.57 3.89 11.69C3.63 11.81 3.32 11.87 2.96 11.87C2.64 11.87 2.365 11.795 2.135 11.645C1.915 11.485 1.74 11.29 1.61 11.06L0.77 9.605C1.71 8.775 2.75 8.16 3.89 7.76C5.04 7.35 6.27 7.145 7.58 7.145C8.52 7.145 9.365 7.3 10.115 7.61C10.875 7.91 11.515 8.335 12.035 8.885C12.565 9.425 12.97 10.07 13.25 10.82C13.53 11.57 13.67 12.39 13.67 13.28V23H11.54ZM6.2 20.165C6.8 20.165 7.325 20.06 7.775 19.85C8.225 19.64 8.68 19.3 9.14 18.83V16.67C8.21 16.71 7.445 16.79 6.845 16.91C6.245 17.03 5.77 17.18 5.42 17.36C5.07 17.54 4.825 17.745 4.685 17.975C4.555 18.205 4.49 18.455 4.49 18.725C4.49 19.255 4.635 19.63 4.925 19.85C5.215 20.06 5.64 20.165 6.2 20.165ZM17.2719 23V0.544999H21.9219V9.095C22.5019 8.525 23.1569 8.07 23.8869 7.73C24.6269 7.38 25.4919 7.205 26.4819 7.205C27.2919 7.205 28.0419 7.38 28.7319 7.73C29.4219 8.08 30.0169 8.595 30.5169 9.275C31.0169 9.945 31.4069 10.77 31.6869 11.75C31.9769 12.73 32.1219 13.845 32.1219 15.095C32.1219 16.265 31.9569 17.345 31.6269 18.335C31.3069 19.325 30.8519 20.185 30.2619 20.915C29.6819 21.645 28.9819 22.215 28.1619 22.625C27.3519 23.035 26.4519 23.24 25.4619 23.24C25.0019 23.24 24.5869 23.195 24.2169 23.105C23.8569 23.015 23.5219 22.89 23.2119 22.73C22.9119 22.56 22.6319 22.36 22.3719 22.13C22.1219 21.9 21.8769 21.65 21.6369 21.38L21.4719 22.16C21.4019 22.48 21.2719 22.7 21.0819 22.82C20.9019 22.94 20.6619 23 20.3619 23H17.2719ZM24.8619 10.7C24.5219 10.7 24.2119 10.735 23.9319 10.805C23.6619 10.865 23.4069 10.955 23.1669 11.075C22.9369 11.195 22.7219 11.35 22.5219 11.54C22.3219 11.72 22.1219 11.93 21.9219 12.17V18.77C22.2719 19.16 22.6519 19.435 23.0619 19.595C23.4719 19.745 23.9019 19.82 24.3519 19.82C24.7819 19.82 25.1769 19.735 25.5369 19.565C25.8969 19.395 26.2069 19.125 26.4669 18.755C26.7369 18.375 26.9469 17.885 27.0969 17.285C27.2469 16.685 27.3219 15.955 27.3219 15.095C27.3219 14.275 27.2619 13.585 27.1419 13.025C27.0219 12.465 26.8519 12.015 26.6319 11.675C26.4219 11.325 26.1669 11.075 25.8669 10.925C25.5669 10.775 25.2319 10.7 24.8619 10.7ZM41.9042 7.205C43.0842 7.205 44.1592 7.39 45.1292 7.76C46.0992 8.13 46.9292 8.66 47.6192 9.35C48.3192 10.04 48.8592 10.88 49.2392 11.87C49.6292 12.85 49.8242 13.955 49.8242 15.185C49.8242 16.425 49.6292 17.545 49.2392 18.545C48.8592 19.535 48.3192 20.38 47.6192 21.08C46.9292 21.77 46.0992 22.305 45.1292 22.685C44.1592 23.055 43.0842 23.24 41.9042 23.24C40.7142 23.24 39.6292 23.055 38.6492 22.685C37.6792 22.305 36.8392 21.77 36.1292 21.08C35.4292 20.38 34.8842 19.535 34.4942 18.545C34.1142 17.545 33.9242 16.425 33.9242 15.185C33.9242 13.955 34.1142 12.85 34.4942 11.87C34.8842 10.88 35.4292 10.04 36.1292 9.35C36.8392 8.66 37.6792 8.13 38.6492 7.76C39.6292 7.39 40.7142 7.205 41.9042 7.205ZM41.9042 19.79C42.9742 19.79 43.7592 19.415 44.2592 18.665C44.7692 17.905 45.0242 16.755 45.0242 15.215C45.0242 13.675 44.7692 12.53 44.2592 11.78C43.7592 11.03 42.9742 10.655 41.9042 10.655C40.8042 10.655 39.9992 11.03 39.4892 11.78C38.9792 12.53 38.7242 13.675 38.7242 15.215C38.7242 16.755 38.9792 17.905 39.4892 18.665C39.9992 19.415 40.8042 19.79 41.9042 19.79ZM57.0266 7.445V17.315C57.0266 18.085 57.2016 18.68 57.5516 19.1C57.9016 19.52 58.4166 19.73 59.0966 19.73C59.6066 19.73 60.0816 19.625 60.5216 19.415C60.9716 19.205 61.4066 18.91 61.8266 18.53V7.445H66.4766V23H63.5966C63.0166 23 62.6366 22.74 62.4566 22.22L62.1716 21.32C61.8716 21.61 61.5616 21.875 61.2416 22.115C60.9216 22.345 60.5766 22.545 60.2066 22.715C59.8466 22.875 59.4566 23 59.0366 23.09C58.6166 23.19 58.1566 23.24 57.6566 23.24C56.8066 23.24 56.0516 23.095 55.3916 22.805C54.7416 22.505 54.1916 22.09 53.7416 21.56C53.2916 21.03 52.9516 20.405 52.7216 19.685C52.4916 18.965 52.3766 18.175 52.3766 17.315V7.445H57.0266ZM75.8389 23.24C75.0989 23.24 74.4439 23.135 73.8739 22.925C73.3139 22.705 72.8389 22.4 72.4489 22.01C72.0689 21.61 71.7789 21.13 71.5789 20.57C71.3789 20.01 71.2789 19.385 71.2789 18.695V10.655H69.9589C69.7189 10.655 69.5139 10.58 69.3439 10.43C69.1739 10.27 69.0889 10.04 69.0889 9.74V7.925L71.5639 7.445L72.4789 3.65C72.5989 3.17 72.9389 2.93 73.4989 2.93H75.9289V7.475H79.7089V10.655H75.9289V18.38C75.9289 18.74 76.0139 19.04 76.1839 19.28C76.3639 19.51 76.6189 19.625 76.9489 19.625C77.1189 19.625 77.2589 19.61 77.3689 19.58C77.4889 19.54 77.5889 19.5 77.6689 19.46C77.7589 19.41 77.8389 19.37 77.9089 19.34C77.9889 19.3 78.0789 19.28 78.1789 19.28C78.3189 19.28 78.4289 19.315 78.5089 19.385C78.5989 19.445 78.6889 19.545 78.7789 19.685L80.1889 21.89C79.5889 22.34 78.9139 22.68 78.1639 22.91C77.4139 23.13 76.6389 23.24 75.8389 23.24ZM88.7914 23V7.445H91.6714C91.9614 7.445 92.2014 7.51 92.3914 7.64C92.5914 7.77 92.7314 7.965 92.8114 8.225L93.0664 9.065C93.3264 8.795 93.5964 8.55 93.8764 8.33C94.1564 8.1 94.4564 7.905 94.7764 7.745C95.1064 7.575 95.4564 7.445 95.8264 7.355C96.2064 7.255 96.6214 7.205 97.0714 7.205C98.0114 7.205 98.7864 7.45 99.3964 7.94C100.016 8.42 100.486 9.065 100.806 9.875C101.066 9.395 101.381 8.985 101.751 8.645C102.131 8.305 102.536 8.03 102.966 7.82C103.406 7.61 103.866 7.455 104.346 7.355C104.836 7.255 105.321 7.205 105.801 7.205C106.691 7.205 107.481 7.34 108.171 7.61C108.861 7.87 109.436 8.255 109.896 8.765C110.366 9.265 110.721 9.885 110.961 10.625C111.201 11.355 111.321 12.185 111.321 13.115V23H106.671V13.115C106.671 11.505 105.981 10.7 104.601 10.7C103.971 10.7 103.446 10.91 103.026 11.33C102.616 11.74 102.411 12.335 102.411 13.115V23H97.7614V13.115C97.7614 12.225 97.5864 11.6 97.2364 11.24C96.8864 10.88 96.3714 10.7 95.6914 10.7C95.2714 10.7 94.8714 10.795 94.4914 10.985C94.1214 11.175 93.7714 11.43 93.4414 11.75V23H88.7914ZM121.591 7.205C122.621 7.205 123.561 7.365 124.411 7.685C125.271 8.005 126.006 8.47 126.616 9.08C127.236 9.69 127.716 10.44 128.056 11.33C128.406 12.21 128.581 13.21 128.581 14.33C128.581 14.68 128.566 14.965 128.536 15.185C128.506 15.405 128.451 15.58 128.371 15.71C128.291 15.84 128.181 15.93 128.041 15.98C127.911 16.03 127.741 16.055 127.531 16.055H118.561C118.711 17.355 119.106 18.3 119.746 18.89C120.386 19.47 121.211 19.76 122.221 19.76C122.761 19.76 123.226 19.695 123.616 19.565C124.006 19.435 124.351 19.29 124.651 19.13C124.961 18.97 125.241 18.825 125.491 18.695C125.751 18.565 126.021 18.5 126.301 18.5C126.671 18.5 126.951 18.635 127.141 18.905L128.491 20.57C128.011 21.12 127.491 21.57 126.931 21.92C126.381 22.26 125.811 22.53 125.221 22.73C124.641 22.92 124.056 23.05 123.466 23.12C122.886 23.2 122.331 23.24 121.801 23.24C120.711 23.24 119.686 23.065 118.726 22.715C117.776 22.355 116.941 21.825 116.221 21.125C115.511 20.425 114.946 19.555 114.526 18.515C114.116 17.475 113.911 16.265 113.911 14.885C113.911 13.845 114.086 12.86 114.436 11.93C114.796 11 115.306 10.185 115.966 9.485C116.636 8.785 117.441 8.23 118.381 7.82C119.331 7.41 120.401 7.205 121.591 7.205ZM121.681 10.415C120.791 10.415 120.096 10.67 119.596 11.18C119.096 11.68 118.766 12.405 118.606 13.355H124.411C124.411 12.985 124.361 12.625 124.261 12.275C124.171 11.925 124.016 11.615 123.796 11.345C123.586 11.065 123.306 10.84 122.956 10.67C122.606 10.5 122.181 10.415 121.681 10.415Z" fill="#121111"/>
</svg>

<svg fill="none" height="24" viewBox="0 0 129 24" width="129" xmlns="http://www.w3.org/2000/svg"><path d="m11.54 23c-.44 0-.775-.06-1.005-.18-.22-.12-.405-.37-.555-.75l-.33-.855c-.39.33-.765.62-1.125.87s-.735.465-1.125.645c-.38.17-.79.295-1.23.375-.43.09-.91.135-1.44.135-.71 0-1.355-.09-1.935-.27-.58-.19-1.075-.465-1.485-.825-.4-.36-.71-.805-.93-1.335-.22-.54-.33-1.16-.33-1.86 0-.55.14-1.115.42-1.695s.765-1.105 1.455-1.575c.69-.48 1.62-.88 2.79-1.2s2.645-.5 4.425-.54v-.66c0-.91-.19-1.565-.57-1.965-.37-.41-.9-.615-1.59-.615-.55 0-1 .06-1.35.18s-.665.255-.945.405c-.27.15-.535.285-.795.405s-.57.18-.93.18c-.32 0-.595-.075-.825-.225-.22-.16-.395-.355-.525-.585l-.84-1.455c.94-.83 1.98-1.445 3.12-1.845 1.15-.41 2.38-.615 3.69-.615.94 0 1.785.155 2.535.465.76.3 1.4.725 1.92 1.275.53.54.935 1.185 1.215 1.935s.42 1.57.42 2.46v9.72zm-5.34-2.835c.6 0 1.125-.105 1.575-.315s.905-.55 1.365-1.02v-2.16c-.93.04-1.695.12-2.295.24s-1.075.27-1.425.45-.595.385-.735.615c-.13.23-.195.48-.195.75 0 .53.145.905.435 1.125.29.21.715.315 1.275.315zm11.0719 2.835v-22.455001h4.65v8.550001c.58-.57 1.235-1.025 1.965-1.365.74-.35 1.605-.525 2.595-.525.81 0 1.56.175 2.25.525s1.285.865 1.785 1.545c.5.67.89 1.495 1.17 2.475.29.98.435 2.095.435 3.345 0 1.17-.165 2.25-.495 3.24-.32.99-.775 1.85-1.365 2.58-.58.73-1.28 1.3-2.1 1.71-.81.41-1.71.615-2.7.615-.46 0-.875-.045-1.245-.135-.36-.09-.695-.215-1.005-.375-.3-.17-.58-.37-.84-.6-.25-.23-.495-.48-.735-.75l-.165.78c-.07.32-.2.54-.39.66-.18.12-.42.18-.72.18zm7.59-12.3c-.34 0-.65.035-.93.105-.27.06-.525.15-.765.27-.23.12-.445.275-.645.465-.2.18-.4.39-.6.63v6.6c.35.39.73.665 1.14.825.41.15.84.225 1.29.225.43 0 .825-.085 1.185-.255s.67-.44.93-.81c.27-.38.48-.87.63-1.47s.225-1.33.225-2.19c0-.82-.06-1.51-.18-2.07s-.29-1.01-.51-1.35c-.21-.35-.465-.6-.765-.75s-.635-.225-1.005-.225zm17.0423-3.495c1.18 0 2.255.185 3.225.555s1.8.9 2.49 1.59c.7.69 1.24 1.53 1.62 2.52.39.98.585 2.085.585 3.315 0 1.24-.195 2.36-.585 3.36-.38.99-.92 1.835-1.62 2.535-.69.69-1.52 1.225-2.49 1.605-.97.37-2.045.555-3.225.555-1.19 0-2.275-.185-3.255-.555-.97-.38-1.81-.915-2.52-1.605-.7-.7-1.245-1.545-1.635-2.535-.38-1-.57-2.12-.57-3.36 0-1.23.19-2.335.57-3.315.39-.99.935-1.83 1.635-2.52.71-.69 1.55-1.22 2.52-1.59.98-.37 2.065-.555 3.255-.555zm0 12.585c1.07 0 1.855-.375 2.355-1.125.51-.76.765-1.91.765-3.45s-.255-2.685-.765-3.435c-.5-.75-1.285-1.125-2.355-1.125-1.1 0-1.905.375-2.415 1.125s-.765 1.895-.765 3.435.255 2.69.765 3.45c.51.75 1.315 1.125 2.415 1.125zm15.1224-12.345v9.87c0 .77.175 1.365.525 1.785s.865.63 1.545.63c.51 0 .985-.105 1.425-.315.45-.21.885-.505 1.305-.885v-11.085h4.65v15.555h-2.88c-.58 0-.96-.26-1.14-.78l-.285-.9c-.3.29-.61.555-.93.795-.32.23-.665.43-1.035.6-.36.16-.75.285-1.17.375-.42.1-.88.15-1.38.15-.85 0-1.605-.145-2.265-.435-.65-.3-1.2-.715-1.65-1.245s-.79-1.155-1.02-1.875-.345-1.51-.345-2.37v-9.87zm18.8123 15.795c-.74 0-1.395-.105-1.965-.315-.56-.22-1.035-.525-1.425-.915-.38-.4-.67-.88-.87-1.44s-.3-1.185-.3-1.875v-8.04h-1.32c-.24 0-.445-.075-.615-.225-.17-.16-.255-.39-.255-.69v-1.815l2.475-.48.915-3.795c.12-.48.46-.72 1.02-.72h2.43v4.545h3.78v3.18h-3.78v7.725c0 .36.085.66.255.9.18.23.435.345.765.345.17 0 .31-.015.42-.045.12-.04.22-.08.3-.12.09-.05.17-.09.24-.12.08-.04.17-.06.27-.06.14 0 .25.035.33.105.09.06.18.16.27.3l1.41 2.205c-.6.45-1.275.79-2.025 1.02-.75.22-1.525.33-2.325.33zm12.9525-.24v-15.555h2.88c.29 0 .53.065.72.195.2.13.34.325.42.585l.255.84c.26-.27.53-.515.81-.735.28-.23.58-.425.9-.585.33-.17.68-.3 1.05-.39.38-.1.795-.15 1.245-.15.94 0 1.715.245 2.325.735.6196.48 1.0896 1.125 1.4096 1.935.26-.48.575-.89.945-1.23.38-.34.785-.615 1.215-.825.44-.21.9-.365 1.38-.465.49-.1.975-.15 1.455-.15.89 0 1.68.135 2.37.405.69.26 1.265.645 1.725 1.155.47.5.825 1.12 1.065 1.86.24.73.36 1.56.36 2.49v9.885h-4.65v-9.885c0-1.61-.69-2.415-2.07-2.415-.63 0-1.155.21-1.575.63-.41.41-.615 1.005-.615 1.785v9.885h-4.6496v-9.885c0-.89-.175-1.515-.525-1.875s-.865-.54-1.545-.54c-.42 0-.82.095-1.2.285-.37.19-.72.445-1.05.765v11.25zm32.7996-15.795c1.03 0 1.97.16 2.82.48.86.32 1.595.785 2.205 1.395.62.61 1.1 1.36 1.44 2.25.35.88.525 1.88.525 3 0 .35-.015.635-.045.855s-.085.395-.165.525-.19.22-.33.27c-.13.05-.3.075-.51.075h-8.97c.15 1.3.545 2.245 1.185 2.835.64.58 1.465.87 2.475.87.54 0 1.005-.065 1.395-.195s.735-.275 1.035-.435c.31-.16.59-.305.84-.435.26-.13.53-.195.81-.195.37 0 .65.135.84.405l1.35 1.665c-.48.55-1 1-1.56 1.35-.55.34-1.12.61-1.71.81-.58.19-1.165.32-1.755.39-.58.08-1.135.12-1.665.12-1.09 0-2.115-.175-3.075-.525-.95-.36-1.785-.89-2.505-1.59-.71-.7-1.275-1.57-1.695-2.61-.41-1.04-.615-2.25-.615-3.63 0-1.04.175-2.025.525-2.955.36-.93.87-1.745 1.53-2.445.67-.7 1.475-1.255 2.415-1.665.95-.41 2.02-.615 3.21-.615zm.09 3.21c-.89 0-1.585.255-2.085.765-.5.5-.83 1.225-.99 2.175h5.805c0-.37-.05-.73-.15-1.08-.09-.35-.245-.66-.465-.93-.21-.28-.49-.505-.84-.675s-.775-.255-1.275-.255z" fill="#121111"/></svg>
